assets/svg/action_createpost_deletearticle.svg

<svg width="81" height="80" viewBox="0 0 81 80" fill="none" xmlns="http://www.w3.org/2000/svg">
<path d="M55.3125 69.9082C54.9734 69.9082 54.6984 70.1831 54.6984 70.5223C54.6984 72.866 52.7984 74.766 50.4547 74.766H31.6953C30.1859 74.766 28.9609 75.991 28.9609 77.5004H50.4547C54.3094 77.5004 57.4328 74.3754 57.4328 70.5223V69.9082H55.3125Z" fill="#E1EAF8"/>
<path d="M44.4438 8.05313H32.9609C32.0203 8.05313 31.1844 7.45156 30.8859 6.55781L29.5312 2.5H47.8719L46.5187 6.55781C46.3732 6.99307 46.0946 7.37159 45.7223 7.63991C45.3499 7.90823 44.9027 8.05277 44.4438 8.05313Z" fill="#E1EAF8"/>
<path d="M43.5126 63.4894C43.6098 63.4572 43.6916 63.3997 43.7544 63.3259C43.8157 63.2542 43.8574 63.1679 43.8754 63.0754C43.8933 62.9828 43.8871 62.8872 43.8571 62.7978C43.8344 62.7297 43.7985 62.6667 43.7515 62.6125C43.7044 62.5583 43.6471 62.5139 43.5828 62.4819C43.5186 62.4499 43.4486 62.4309 43.377 62.426C43.3054 62.4211 43.2335 62.4304 43.1654 62.4533L39.3081 63.748C39.24 63.7707 39.177 63.8066 39.1228 63.8537C39.0686 63.9007 39.0242 63.958 38.9922 64.0223C38.9602 64.0866 38.9412 64.1565 38.9363 64.2282C38.9314 64.2998 38.9407 64.3717 38.9636 64.4397C38.9863 64.5078 39.0222 64.5708 39.0693 64.625C39.1164 64.6792 39.1737 64.7236 39.2379 64.7556C39.3022 64.7876 39.3722 64.8066 39.4438 64.8115C39.5154 64.8164 39.5873 64.8071 39.6553 64.7842L43.5126 63.4894Z" fill="#FD4E4E"/>
<path d="M48.0147 71.9684C48.1402 71.9463 48.2541 71.8811 48.3367 71.784C48.3792 71.734 48.4142 71.6736 48.4377 71.6074L49.7608 67.76C49.8586 67.4739 49.7072 67.1624 49.4211 67.0646C49.135 66.9668 48.8235 67.1183 48.7257 67.4044L47.4027 71.2518C47.3612 71.3723 47.3632 71.5035 47.4082 71.6228C47.4532 71.742 47.5384 71.8418 47.6491 71.9049C47.7599 71.968 47.8892 71.9904 48.0147 71.9684Z" fill="#FD4E4E"/>
<path d="M69.3467 44.3211C69.2496 44.3533 69.1678 44.4109 69.105 44.4847C69.0437 44.5563 69.002 44.6426 68.984 44.7352C68.966 44.8277 68.9723 44.9234 69.0023 45.0128C69.0249 45.0809 69.0608 45.1439 69.1079 45.1981C69.155 45.2523 69.2123 45.2967 69.2766 45.3287C69.3408 45.3607 69.4108 45.3797 69.4824 45.3846C69.554 45.3895 69.6259 45.3802 69.6939 45.3573L73.5513 44.0625C73.6194 44.0399 73.6823 44.0039 73.7365 43.9569C73.7908 43.9098 73.8351 43.8525 73.8671 43.7882C73.8991 43.724 73.9181 43.654 73.9231 43.5824C73.928 43.5108 73.9187 43.4389 73.8957 43.3709C73.8731 43.3027 73.8372 43.2398 73.7901 43.1856C73.743 43.1314 73.6857 43.087 73.6214 43.055C73.5572 43.023 73.4872 43.004 73.4156 42.9991C73.344 42.9942 73.2721 43.0034 73.2041 43.0264L69.3467 44.3211Z" fill="#FD4E4E"/>
<path d="M64.8447 35.8422C64.7192 35.8642 64.6053 35.9294 64.5227 36.0265C64.4802 36.0765 64.4451 36.137 64.4217 36.2031L63.0986 40.0506C63.0008 40.3366 63.1522 40.6481 63.4383 40.7459C63.7244 40.8437 64.0359 40.6923 64.1337 40.4062L65.4567 36.5588C65.4982 36.4382 65.4962 36.307 65.4512 36.1878C65.4062 36.0686 65.321 35.9688 65.2102 35.9057C65.0995 35.8426 64.9702 35.8201 64.8447 35.8422Z" fill="#FD4E4E"/>
<path d="M56.7234 69.6327C56.7234 69.3311 56.9688 69.0858 57.2703 69.0858C57.5734 69.0858 57.8172 69.3296 57.8156 69.6327V70.5218C57.8156 74.6702 54.4406 78.0468 50.2906 78.0468H26.7828C22.6344 78.0468 19.2578 74.6718 19.2578 70.5218L19.2584 67.9993L19.2579 64.2137C19.2578 63.9112 19.503 63.666 19.8055 63.666C20.1079 63.666 20.3531 63.9112 20.3531 64.2136V70.5218C20.3531 74.0671 23.2375 76.953 26.7844 76.953H50.2922C53.8375 76.953 56.7234 74.0686 56.7234 70.5218V69.6327Z" fill="#9A9A9A"/>
<path d="M27.8863 38.5645H47.0066C47.3082 38.5645 47.5535 38.3191 47.5535 38.0176C47.5535 37.716 47.3082 37.4707 47.0066 37.4707H27.8863C27.5848 37.4707 27.3395 37.716 27.3395 38.0176C27.3395 38.3191 27.5848 38.5645 27.8863 38.5645Z" fill="#9A9A9A"/>
<path d="M27.8844 44.0035H42.0047C42.3062 44.0035 42.5516 43.7582 42.5516 43.4566C42.5516 43.155 42.3062 42.9097 42.0047 42.9097H27.8844C27.5828 42.9097 27.3375 43.155 27.3375 43.4566C27.3375 43.7582 27.5828 44.0035 27.8844 44.0035ZM37.5312 49.1129H27.8281C27.5266 49.1129 27.2812 49.3582 27.2812 49.6597C27.2812 49.9613 27.5266 50.2066 27.8281 50.2066H37.5312C37.8328 50.2066 38.0781 49.9613 38.0781 49.6597C38.0781 49.3582 37.8328 49.1129 37.5312 49.1129ZM37.5312 54.5519H27.8281C27.5266 54.5519 27.2812 54.7972 27.2812 55.0988C27.2812 55.4004 27.5266 55.6457 27.8281 55.6457H37.5312C37.8328 55.6457 38.0781 55.4004 38.0781 55.0988C38.0781 54.7972 37.8328 54.5519 37.5312 54.5519Z" fill="#9A9A9A"/>
<path d="M19.2609 9.47813V60.0273C19.2609 60.3298 19.5061 60.575 19.8086 60.575C20.1111 60.575 20.3563 60.3298 20.3563 60.0273V9.47813C20.3563 5.93281 23.2406 3.04688 26.7875 3.04688H50.2953C53.8406 3.04688 56.7266 5.93125 56.7266 9.47813V38.1719C56.7266 38.4734 56.9719 38.7188 57.2734 38.7188C57.575 38.7188 57.8203 38.4734 57.8203 38.1719V9.47813C57.8203 5.32969 54.4453 1.95312 50.2953 1.95312H26.7859C22.6375 1.95312 19.2609 5.32813 19.2609 9.47813Z" fill="#9A9A9A"/>
<path d="M31.5 25.447C31.5 21.3194 35.7784 24.647 38.2909 22.0552C40.8034 19.4635 37.5908 15 41.5969 15M34.6128 26.1978H42.3916M40.8359 22.9987H42.3916M41.6129 19.799H42.3907M45.5018 18.1997V27.7988C45.5018 28.6474 45.174 29.4612 44.5905 30.0613C44.007 30.6614 43.2156 30.9984 42.3903 30.9984H34.6115C33.7863 30.9984 32.9949 30.6614 32.4114 30.0613C31.8279 29.4612 31.5 28.6474 31.5 27.7988V25.311C31.5 22.5764 32.5564 19.9538 34.4368 18.0201C36.3172 16.0864 38.8676 15 41.5269 15H42.3903C43.2156 15 44.007 15.3372 44.5905 15.9372C45.174 16.5373 45.5018 17.3511 45.5018 18.1997Z" stroke="#9A9A9A" stroke-width="1.2" stroke-linecap="round" stroke-linejoin="round"/>
<path d="M59.1482 49.9201H55.4621C55.609 49.717 55.7287 49.5204 55.8065 49.3771C55.8628 49.2734 55.9725 49.1929 56.1096 49.1719C56.1345 49.1681 56.1686 49.1667 56.3452 49.1667H58.3502C58.5267 49.1667 58.5609 49.1681 58.5858 49.1719C58.7584 49.1983 58.8315 49.2579 58.8764 49.3527C58.8875 49.376 58.9015 49.408 58.9185 49.4467C58.9693 49.5624 59.0463 49.7379 59.1482 49.9201Z" fill="#FD4E4E"/>
<path fill-rule="evenodd" clip-rule="evenodd" d="M57.5 66C64.1274 66 69.5 60.6274 69.5 54C69.5 47.3726 64.1274 42 57.5 42C50.8726 42 45.5 47.3726 45.5 54C45.5 60.6274 50.8726 66 57.5 66ZM56.3165 48.1667C56.1853 48.1666 56.0686 48.1665 55.9582 48.1834C55.5237 48.2499 55.1388 48.5112 54.9278 48.8999C54.8331 49.0742 54.6526 49.3586 54.4464 49.5931C54.3434 49.7103 54.2461 49.8011 54.1619 49.8596C54.0915 49.9085 54.0548 49.918 54.0483 49.9196C54.0476 49.9198 54.0473 49.9199 54.0473 49.92C54.0401 49.9201 54.0298 49.9201 54.0012 49.9201H52.1667C51.8905 49.9201 51.6667 50.144 51.6667 50.4201C51.6667 50.6963 51.8905 50.9201 52.1667 50.9201H62.8333C63.1095 50.9201 63.3333 50.6963 63.3333 50.4201C63.3333 50.144 63.1095 49.9201 62.8333 49.9201H60.6941C60.6622 49.9201 60.6531 49.9201 60.6457 49.9199L60.6337 49.9198C60.4401 49.9197 60.2886 49.8228 60.139 49.6189C60.0153 49.4502 59.9364 49.2727 59.8582 49.0966C59.8326 49.0389 59.807 48.9813 59.78 48.9243C59.5537 48.447 59.1361 48.2445 58.7371 48.1834C58.6267 48.1665 58.51 48.1666 58.3788 48.1667H56.3165ZM53.8332 51.9925C53.8141 51.7171 53.5752 51.5093 53.2998 51.5284C53.0243 51.5476 52.8165 51.7864 52.8357 52.0619L53.1185 56.13C53.1703 56.8756 53.2127 57.4857 53.3125 57.9662C53.4173 58.4705 53.5973 58.8982 53.97 59.2325C54.34 59.5644 54.789 59.7048 55.3111 59.7703C55.8137 59.8334 56.4479 59.8333 57.2302 59.8333H57.7688C58.5512 59.8333 59.1854 59.8334 59.6879 59.7703C60.21 59.7048 60.6591 59.5644 61.0291 59.2325C61.4018 58.8982 61.5818 58.4705 61.6865 57.9662C61.7864 57.4858 61.8288 56.8756 61.8806 56.1301L62.1634 52.0619C62.1826 51.7864 61.9748 51.5476 61.6993 51.5284C61.4238 51.5093 61.185 51.7171 61.1658 51.9925L60.8855 56.025C60.8305 56.815 60.7918 57.3568 60.7074 57.7628C60.6265 58.1527 60.5159 58.3495 60.3613 58.4881C60.2041 58.6292 59.9841 58.7253 59.5634 58.7781C59.1304 58.8324 58.5592 58.8333 57.7352 58.8333H57.2638C56.4398 58.8333 55.8686 58.8324 55.4356 58.7781C55.015 58.7253 54.795 58.6292 54.6377 58.4882C54.4832 58.3495 54.3726 58.1527 54.2916 57.7628C54.2073 57.3568 54.1685 56.815 54.1136 56.025L53.8332 51.9925ZM56.473 53.4366C56.4444 53.1619 56.1985 52.9625 55.9239 52.9911C55.6492 53.0198 55.4498 53.2656 55.4784 53.5403L55.7832 56.4627C55.8118 56.7374 56.0577 56.9368 56.3323 56.9082C56.607 56.8795 56.8064 56.6337 56.7778 56.359L56.473 53.4366ZM59.5206 53.5403C59.5493 53.2656 59.3498 53.0198 59.0752 52.9911C58.8005 52.9625 58.5547 53.1619 58.526 53.4366L58.2213 56.359C58.1926 56.6337 58.3921 56.8795 58.6667 56.9082C58.9414 56.9368 59.1872 56.7374 59.2159 56.4627L59.5206 53.5403Z" fill="#FD4E4E"/>
</svg>

<svg xmlns="http://www.w3.org/2000/svg" width="81" height="80" fill="none"><path fill="#E1EAF8" d="M55.313 69.908a.614.614 0 0 0-.615.614c0 2.344-1.9 4.244-4.243 4.244h-18.76a2.735 2.735 0 0 0-2.734 2.734h21.494a6.98 6.98 0 0 0 6.978-6.978v-.614zM44.444 8.053H32.96c-.94 0-1.777-.601-2.075-1.495L29.53 2.5h18.34L46.52 6.558a2.19 2.19 0 0 1-2.075 1.495"/><path fill="#FD4E4E" d="M43.513 63.49a.546.546 0 1 0-.347-1.036l-3.858 1.294a.545.545 0 1 0 .347 1.036zM48.015 71.968a.55.55 0 0 0 .423-.36l1.323-3.848a.547.547 0 1 0-1.035-.356l-1.323 3.848a.547.547 0 0 0 .612.716M69.347 44.321a.545.545 0 1 0 .347 1.036l3.857-1.294a.545.545 0 0 0 .07-1.008.55.55 0 0 0-.417-.029zM64.845 35.842a.55.55 0 0 0-.423.361l-1.323 3.848a.547.547 0 1 0 1.035.355l1.323-3.847a.547.547 0 0 0-.612-.717"/><path fill="#9A9A9A" d="M56.723 69.633c0-.302.246-.547.547-.547.303 0 .547.244.546.547v.889c0 4.148-3.375 7.525-7.525 7.525H26.783c-4.149 0-7.525-3.375-7.525-7.525v-6.308a.548.548 0 1 1 1.095 0v6.308a6.44 6.44 0 0 0 6.431 6.431h23.508a6.44 6.44 0 0 0 6.431-6.431zM27.886 38.565h19.12a.548.548 0 0 0 0-1.094h-19.12a.547.547 0 0 0 0 1.094M27.884 44.004h14.12a.548.548 0 0 0 0-1.094h-14.12a.547.547 0 0 0 0 1.094m9.647 5.109h-9.703a.548.548 0 0 0 0 1.094h9.703a.547.547 0 0 0 0-1.094m0 5.439h-9.703a.548.548 0 0 0 0 1.094h9.703a.547.547 0 0 0 0-1.094"/><path fill="#9A9A9A" d="M19.26 9.478v50.55a.548.548 0 1 0 1.096 0V9.477a6.44 6.44 0 0 1 6.432-6.431h23.507a6.44 6.44 0 0 1 6.432 6.431v28.694a.548.548 0 0 0 1.093 0V9.478c0-4.148-3.375-7.525-7.525-7.525h-23.51c-4.148 0-7.524 3.375-7.524 7.525"/><path stroke="#9A9A9A" stroke-linecap="round" stroke-linejoin="round" stroke-width="1.2" d="M31.5 25.447c0-4.128 4.278-.8 6.79-3.392S37.59 15 41.598 15m-6.984 11.198h7.779m-1.556-3.2h1.556m-.78-3.199h.779m3.11-1.6v9.6c0 .848-.327 1.662-.91 2.262-.584.6-1.375.937-2.2.937h-7.78a3.07 3.07 0 0 1-2.2-.937A3.25 3.25 0 0 1 31.5 27.8V25.31c0-2.735 1.056-5.357 2.937-7.29A9.9 9.9 0 0 1 41.527 15h.863c.826 0 1.617.337 2.2.937s.912 1.414.912 2.263"/><path fill="#FD4E4E" d="M59.148 49.92h-3.686c.147-.203.267-.4.344-.543a.41.41 0 0 1 .304-.205 2 2 0 0 1 .235-.005h2.005c.177 0 .21.001.236.005.172.026.245.086.29.18q.018.036.043.095c.05.115.127.29.23.473"/><path fill="#FD4E4E" fill-rule="evenodd" d="M57.5 66c6.627 0 12-5.373 12-12s-5.373-12-12-12-12 5.373-12 12 5.373 12 12 12m-1.184-17.833c-.13 0-.247 0-.358.016-.434.067-.82.328-1.03.717a4 4 0 0 1-.482.693q-.156.177-.284.267a.4.4 0 0 1-.115.06h-1.88a.5.5 0 1 0 0 1h10.666a.5.5 0 1 0 0-1h-2.199c-.194 0-.345-.097-.495-.301a2.7 2.7 0 0 1-.28-.522l-.079-.173c-.226-.477-.644-.68-1.043-.74-.11-.017-.227-.017-.358-.017zm-2.483 3.825a.5.5 0 0 0-.997.07l.282 4.068c.052.746.095 1.356.194 1.836.105.505.285.932.658 1.267.37.331.819.472 1.341.537.503.063 1.137.063 1.92.063h.538c.782 0 1.416 0 1.919-.063.522-.065.971-.206 1.341-.538.373-.334.553-.761.657-1.266.1-.48.143-1.09.195-1.836l.282-4.068a.5.5 0 1 0-.997-.07l-.28 4.033c-.056.79-.094 1.332-.179 1.738-.08.39-.191.587-.346.725-.157.141-.377.237-.798.29-.433.054-1.004.055-1.828.055h-.471c-.824 0-1.395 0-1.828-.055-.421-.053-.641-.149-.798-.29-.155-.139-.265-.335-.346-.725-.085-.406-.123-.948-.178-1.738zm2.64 1.445a.5.5 0 1 0-.995.103l.305 2.923a.5.5 0 1 0 .995-.104zm3.048.103a.5.5 0 1 0-.995-.103l-.305 2.922a.5.5 0 1 0 .995.104z" clip-rule="evenodd"/></svg>
